icons/SVG/router_icon.svg

<?xml version="1.0" encoding="UTF-8"?>
<svg width="300px" height="260px" viewBox="0 0 300 260" version="1.1" xmlns="http://www.w3.org/2000/svg" xmlns:xlink="http://www.w3.org/1999/xlink">
    <!-- Generator: Sketch 42 (36781) - http://www.bohemiancoding.com/sketch -->
    <title>router_icon</title>
    <desc>Created with Sketch.</desc>
    <defs></defs>
    <g id="Page-1" stroke="none" stroke-width="1" fill="none" fill-rule="evenodd">
        <g id="router_icon" fill="#1A1918">
            <g id="Router_Icon">
                <path d="M80.3781878,249.963381 L219.622074,249.963381 L289.24369,130.000098 L219.622074,10.0361629 L80.3781878,10.0361629 L10.7562445,130.000098 L80.3781878,249.963381 Z M222.458319,259.737817 L77.5419432,259.737817 C75.7868122,259.737817 74.1649782,258.806313 73.2875764,257.294208 L0.829388646,132.444033 C-0.0483406114,130.931602 -0.0483406114,129.068594 0.829388646,127.556489 L73.2875764,2.70533584 C74.1649782,1.19323058 75.7868122,0.261726817 77.5419432,0.261726817 L222.458319,0.261726817 C224.21345,0.261726817 225.834956,1.19323058 226.712686,2.70533584 L299.170546,127.556489 C300.048275,129.068594 300.048275,130.931602 299.170546,132.444033 L226.712686,257.294208 C225.834956,258.806313 224.21345,259.737817 222.458319,259.737817 L222.458319,259.737817 Z" id="Fill-1"></path>
                <path d="M189.008024,77.5090301 C201.25595,77.3992306 212.743068,84.8440927 217.543723,95.9019123 C218.313046,97.6746692 217.670469,99.4979273 216.019487,100.225145 C214.358352,100.956599 212.618614,100.22091 211.773963,98.4429398 C208.218832,90.960609 202.45333,86.1388797 194.295688,84.3560226 C183.017522,81.8909098 171.518614,87.6460977 166.696343,98.0786792 C166.24929,99.0466742 165.700382,99.8700075 164.647434,100.22319 C163.367522,100.651962 162.216648,100.378604 161.299618,99.405396 C160.355076,98.4025388 160.180186,97.2120125 160.731386,95.9527393 C162.297871,92.3694311 164.497107,89.2135915 167.29012,86.4692556 C172.140557,81.7032406 177.952893,78.8445439 184.682587,77.8159474 C185.230186,77.7325388 185.782041,77.6670501 186.334552,77.6318622 C187.275491,77.5725639 188.218395,77.5438922 189.008024,77.5090301" id="Fill-3"></path>
                <path d="M189.192871,91.7510025 C195.668745,92.0647619 200.497238,94.9703759 203.386539,100.864035 C204.269181,102.665138 203.655098,104.511203 201.993635,105.292506 C200.316452,106.080326 198.564269,105.354085 197.676059,103.538321 C195.965797,100.041028 193.145928,98.1441353 189.23643,98.1112281 C185.254225,98.0773434 182.381299,99.973584 180.625841,103.528546 C179.889596,105.020451 178.789487,105.694561 177.256408,105.559674 C176.054771,105.45411 174.855098,104.571805 174.661867,103.341203 C174.53381,102.521454 174.59964,101.527068 174.960229,100.798221 C177.8456,94.9658145 182.644618,92.0360902 189.192871,91.7510025" id="Fill-5"></path>
                <path d="M192.981321,125.281424 C192.981976,123.955033 192.988199,122.746261 192.980011,121.539118 C192.959378,118.522075 193.025207,115.494932 192.879793,112.491574 C192.745186,109.713028 191.079465,107.591649 189.259487,107.51606 C187.39988,107.438516 185.734159,109.448792 185.403046,112.228316 C185.31167,112.996912 185.29595,113.795484 185.29333,114.580371 C185.282849,118.090697 185.288745,121.601023 185.288745,125.281424 L192.981321,125.281424 Z" id="Fill-7"></path>
                <path d="M98.6608952,147.563456 C94.469083,147.552704 90.9784716,144.044333 90.9830568,139.846213 C90.9873144,135.596288 94.5408079,132.103231 98.8144978,132.148193 C103.053144,132.192504 106.490699,135.660148 106.46679,139.867717 C106.442227,144.176288 102.995502,147.574208 98.6608952,147.563456 M205.994738,137.386965 C204.648013,130.194609 199.061659,125.221702 191.87345,124.722554 L98.0667904,124.722554 C96.9539083,124.775987 95.8367686,124.910875 94.7798908,125.195311 C87.3165721,127.202003 82.6600218,134.165637 83.5528166,141.817065 C84.3869869,148.964133 90.5274891,154.69912 98.0039083,154.999195 C103.326943,155.21293 108.664061,155.085862 113.995611,155.087165 C133.010568,155.09303 152.025197,155.099221 171.04048,155.08293 C178.147467,155.077391 185.265262,155.235737 192.359476,154.915461 C200.977926,154.527742 207.573996,145.822955 205.994738,137.386965" id="Fill-9"></path>
            </g>
        </g>
    </g>
</svg>

<svg width="300" height="260" viewBox="0 0 300 260" xmlns="http://www.w3.org/2000/svg"><title>router_icon</title><g fill="#FFF" fill-rule="evenodd"><path d="M80.378 249.963h139.244L289.244 130 219.622 10.036H80.378L10.756 130l69.622 119.963zm142.08 9.775H77.542a4.917 4.917 0 0 1-4.254-2.444L.829 132.444a4.865 4.865 0 0 1 0-4.888L73.288 2.706A4.917 4.917 0 0 1 77.542.261h144.916c1.755 0 3.377.931 4.255 2.443l72.458 124.851a4.865 4.865 0 0 1 0 4.888l-72.458 124.85a4.917 4.917 0 0 1-4.255 2.444z"/><path d="M189.008 77.509c12.248-.11 23.735 7.335 28.536 18.393.769 1.773.126 3.596-1.525 4.323-1.66.732-3.4-.004-4.245-1.782-3.555-7.482-9.32-12.304-17.478-14.087-11.278-2.465-22.777 3.29-27.6 13.723-.447.968-.996 1.791-2.049 2.144-1.28.429-2.43.156-3.347-.818-.945-1.002-1.12-2.193-.569-3.452 1.567-3.584 3.766-6.74 6.56-9.484 4.85-4.766 10.662-7.624 17.392-8.653a19.01 19.01 0 0 1 1.652-.184c.94-.06 1.883-.088 2.673-.123"/><path d="M189.193 91.751c6.476.314 11.304 3.22 14.194 9.113.882 1.801.268 3.647-1.393 4.429-1.678.787-3.43.061-4.318-1.755-1.71-3.497-4.53-5.394-8.44-5.427-3.982-.034-6.855 1.863-8.61 5.418-.736 1.491-1.837 2.166-3.37 2.03-1.201-.105-2.4-.987-2.594-2.218-.128-.82-.062-1.814.298-2.543 2.886-5.832 7.685-8.762 14.233-9.047m3.788 33.53c.001-1.326.007-2.535-.001-3.742-.02-3.017.045-6.044-.1-9.047-.135-2.779-1.8-4.9-3.62-4.976-1.86-.077-3.526 1.933-3.857 4.712-.091.769-.107 1.567-.11 2.352-.01 3.51-.004 7.021-.004 10.701h7.692z"/><path d="M98.66 147.563c-4.19-.01-7.682-3.519-7.677-7.717.004-4.25 3.558-7.743 7.831-7.698 4.24.045 7.677 3.512 7.653 7.72-.025 4.308-3.471 7.706-7.806 7.695m107.334-10.176c-1.347-7.192-6.933-12.165-14.122-12.664H98.067c-1.113.053-2.23.188-3.287.472-7.463 2.007-12.12 8.97-11.227 16.622.834 7.147 6.974 12.882 14.45 13.182 5.324.214 10.661.087 15.993.088 19.015.006 38.03.012 57.044-.004 7.107-.006 14.225.153 21.32-.168 8.618-.387 15.214-9.092 13.635-17.528"/></g></svg>
